X: 1
T: Finbar Dwyer's
M: 6/8
L: 1/8
R: jig
K: Dmaj
D|:E/2F/2GA BAG|Adc d3|fdg e/2f/2ed|ABG EFD|
d2^g afd|B/2c/2de g2a|fed edA|GEA D3:|
|:dcd- dfa|gec Afe|d2D FGA|=cGc EGA|
d2d f/2g/2gf|gec ABc|dcd ~A3|GEA D3:|
|:dcd ~a3|~g3~a3|d2d agf|gef gfe|
d2f edA|GAB AFA|d2f edA|GEA D3:|
